!!!COM:	Bach, Johann Sebastian
!!!CDT:	1685/02/21/-1750/07/28/
!!!OTL@@DE:	Kyrie! Gott Vater in Ewigkeit
!!!SCT:	BWV 371
!!!PC#:	132
!!!AGN:	chorale
**kern	**kern	**kern	**kern
*ICvox	*ICvox	*ICvox	*ICvox
*Ibass	*Itenor	*Ialto	*Isoprn
*I"Bass	*I"Tenor	*I"Alto	*I"Soprano
*clefF4	*clefGv2	*clefG2	*clefG2
*k[]	*k[]	*k[]	*k[]
*a:	*a:	*a:	*a:
*M4/4	*M4/4	*M4/4	*M4/4
*met(c)	*met(c)	*met(c)	*met(c)
*MM100	*MM100	*MM100	*MM100
=1-	=1-	=1-	=1-
4.E	4.B	8eL	2g
.	.	8fJ	.
.	.	[4g	.
8D	16cLL	.	.
.	16dJJ	.	.
4C	8eL	8gL]	2a
.	8AJ	16f#L	.
.	.	16eJJ	.
4D	4d	4f#	.
=2	=2	=2	=2
2GG;	2d;	2g;	2b;
4D	4d	4fnX	4a
8AAL	8cL	4e	4cc
8BBJ	8dJ	.	.
=3	=3	=3	=3
8CL	[2e	4a	4cc
8D	.	.	.
8E	.	[4g	4b
8DJ	.	.	.
8CL	8eL]	8gL]	4a
8AAJ	8cJ	16f#L	.
.	.	16eJJ	.
4D	8AL	4f#	4a
.	16dL	.	.
.	16cJJ	.	.
=4	=4	=4	=4
2GG;	2B;	2d;	2g;
8DL	8dL	8fnXL	4a
8EJ	16cL	8eJ	.
.	16B-JJ	.	.
[4F	4A	8dL	4a
.	.	8c#J	.
=5	=5	=5	=5
8FL]	4B-	8dL	4g
8E	.	8c#J	.
8F	8AL	[4d	4f
8B-J	8dJ	.	.
8GL	8B-L	8dL]	4e
8EJ	8GJ	16c#L	.
.	.	16BJJ	.
8AL	8EL	4c#	4e
8AAJ	16AL	.	.
.	16GJJ	.	.
=6	=6	=6	=6
2D;	2F;	2A;	2d;
4.D	4F	4d	4d
.	8EL	4e	4a
8C#	[8AJ	.	.
=7	=7	=7	=7
8D	8AL]	16fLL	4a
.	.	16eJJ	.
4F	16dL	4d	.
.	16cnXJJ	.	.
.	8BL	.	4g
8E	16cL	16eLL	.
.	16BJJ	16dJJ	.
8F	8AL	8c	4a
4A	8cJ	4f	.
.	8dL	.	4b
8G#	16cL	[8e	.
.	16BJJ	.	.
=8	=8	=8	=8
8A	8AL	16eL]L	4cc
.	.	16f#JJ	.
4E	16GnXL	4g	.
.	16AJJ	.	.
.	8BL	.	4b
8D	16cL	[8g	.
.	16dJJ	.	.
8CL	8eL	8gL]	2a
8AAJ	8cJ	16f#L	.
.	.	16eJJ	.
4D	8AL	4f#	.
.	8dJ	.	.
=9	=9	=9	=9
2GG;	2B;	2d;	2g;
4C	4.c	4e	4g
8DL	.	4d	8fnXL
8EJ	8B-	.	8gJ
=10	=10	=10	=10
4F	8AL	8cL	4a
.	8BnXJ	8dJ	.
4C	8cL	4e	4g
.	8B-J	.	.
4C#	8A	4e	4g
.	4B-	.	.
4D	.	4d	4f
.	[8A	.	.
=11	=11	=11	=11
1E;	4A]	4c	1e;
.	8G#L	8BnXL	.
.	8F#J	8AJ	.
.	2G#;	2B;	.
=12||	=12||	=12||	=12||
!! Christe, aller Welt Trost
8EL	4GnX	4B	2e
8DJ	.	.	.
2C	8AL	8cL	.
.	8GJ	8BJ	.
.	4F#	4A	2d
8BBL	[4G	8BL	.
8AAJ	.	8cJ	.
=13	=13	=13	=13
4BB	8GL]	8eL	2g
.	8d	8fnX	.
2E	8c	8e	.
.	8BJ	8dJ	.
.	4.A	8cL	4a
.	.	16dL	.
.	.	16eJJ	.
4D	.	4f	4b
.	16GLL	.	.
.	16FnXJJ	.	.
=14	=14	=14	=14
4E	8GL	16eLL	4cc
.	.	16fJJ	.
.	16cL	4g	.
.	16B-JJ	.	.
4F	4A	.	4cc
.	.	[8f	.
2C;	2G;	8fL]	2cc;
.	.	16eL	.
.	.	16dJJ	.
.	.	4e;	.
=15	=15	=15	=15
4AA	4A	16eLL	4cc
.	.	16f#JJ	.
.	.	4g	.
4D	4A	.	4cc
.	.	[8f#	.
8GG	8BnXL	8f#L]	4b
4G	8GJ	16eL	.
.	.	16dJJ	.
.	8eL	16c#LL	4a
.	.	16BJ	.
[8FnX	16dL	8AJ	.
.	16cnXJJ	.	.
=16	=16	=16	=16
8FL]	8BL	8d	4g
8EJ	16cL	4cnX	.
.	16B-JJ	.	.
8FL	8AL	.	4a
8F#J	16dL	[8a	.
.	16cJJ	.	.
8GL	8BnXL	8aL]	4b
16BBL	[8dJ	8gJ	.
16CJJ	.	.	.
8DL	16dLL]	16f#LL	4b
.	16c	16eJ	.
8D#J	16B	8f#J	.
.	16AJJ	.	.
=17	=17	=17	=17
2E;	2G;	2e;	2b;
8EL	4G	4.c	4e
8CJ	.	.	.
8GL	4G	.	4d
8FnXJ	.	8B	.
=18	=18	=18	=18
4.E	4G	8cL	4g
.	.	16dL	.
.	.	16eJJ	.
.	8cL	16fLL	8aL
.	.	16eJ	.
8D	8dJ	8fJ	8bJ
8CL	4G	4e	4cc
8BB	.	.	.
8AA	[4A	[4f	4cc
8BBJ	.	.	.
=19	=19	=19	=19
2C;	8AL]	8fL]	2cc;
.	16GL	16eL	.
.	16FJJ	16dJJ	.
.	4G;	4e;	.
8AAL	8cL	8eL	4cc
8BBJ	8dJ	16aL	.
.	.	16g#JJ	.
8CL	[4e	[4a	4cc
8DJ	.	.	.
=20	=20	=20	=20
8EL	8eL]	8a]	4b
8BB	8dJ	4gnX	.
8C	8eL	.	4a
8DJ	16dL	8f#	.
.	16cJJ	.	.
4GG;	4B;	4d;	4g;
8DL	[4d	8fL	4a
8EJ	.	8gJ	.
=21	=21	=21	=21
8FL	8dL]	8aL	4a
8AAJ	8c#	16gL	.
.	.	16fJJ	.
8BBL	8d	8fL	4g
8C#XJ	8AJ	[8eJ	.
8DL	4A	8e]	4f
8FF	.	4d	.
8GG	8B-L	.	4e
8AAJ	16AL	8c#	.
.	16GJJ	.	.
=22	=22	=22	=22
2DD;	2F;	2A;	2d;
8DL	8FL	4A	4d
8EJ	8GJ	.	.
8FL	8AL	16dLL	4a
.	.	16eJ	.
8DJ	8dJ	8fJ	.
=23	=23	=23	=23
8BB-L	8dL	4.f	4a
8BBJ	8BJ	.	.
[4C	8GL	.	4g
.	16cL	[8e	.
.	16BJJ	.	.
8CL]	4.A	16eLL	4a
.	.	16d	.
8C#	.	16e	.
.	.	16gJJ	.
8D	.	16fLL	4b
.	.	16e	.
8D#J	16GLL	16f#LL	.
.	16F#JJ	16aJJJJ	.
=24	=24	=24	=24
8EL	8EL	8gL	4cc
8F#	8A	8dnX	.
8G	8B	8d	4b
8EJ	[8eJ	[8gJ	.
8CL	8eL]	8gL]	2a
8AAJ	8cnXJ	16f#L	.
.	.	16eJJ	.
4D	8AL	4f#	.
.	16dL	.	.
.	16cJJ	.	.
=25	=25	=25	=25
2GG;	2B;	2d;	2g;
8CL	4.c	4e	4g
8BB-XJ	.	.	.
8AAL	.	8fnXL	8fnXL
8GGJ	8B-X	8eJ	8gJ
=26	=26	=26	=26
8FFL	16cLL	[4f	4a
.	16B-J	.	.
8AAJ	8cJ	.	.
8BB-XL	8dL	8fL]	4g
8BBJ	8GJ	16eL	.
.	.	16dJJ	.
8CL	8cL	4.e	4g
8C#J	8B-J	.	.
[4D	8AL	.	4f
.	16BL	16dLL	.
.	16AJJ	16cJJ	.
=27	=27	=27	=27
8DL]	4G#	8BL	1e;
16CnXL	.	8dJ	.
16BBJJ	.	.	.
8CL	2A	2c	.
8DJ	.	.	.
2E;	.	.	.
.	4G#X;	4B;	.
=28||	=28||	=28||	=28||
!! Kyrie, Gott heil'ger Geist
4EE	2e	2g	2b
2E	.	.	.
.	2e	2g	2cc
8DL	.	.	.
8CJ	.	.	.
=29	=29	=29	=29
2G;	2B;	2g;	2dd;
4r	4ry	4ry	4r
8GGL	4d	4g	4b
8AAJ	.	.	.
=30	=30	=30	=30
4BB	4d	4.g	4dd
8EEL	8eL	.	4cc
8FF#J	8dJ	4a	.
8GGL	4d	.	4b
8BBJ	.	4g	.
8CL	8eL	.	4a
8DJ	16dL	8f#	.
.	16cJJ	.	.
=31	=31	=31	=31
2GG;	2B;	2d;	2g;
8EEL	4e	4g	4b
8E	.	.	.
8D	4e	[4a	4cc
8CJ	.	.	.
=32	=32	=32	=32
8BB	4d	8aL]	4dd
4B	.	16gL	.
.	.	16f#JJ	.
.	8dL	4g	8bL
8A	8cJ	.	8ccJ
8GL	4.B	4.g	4dd
8F#J	.	.	.
[4E	.	.	4cc
.	[8A	8f#	.
=33	=33	=33	=33
8EL]	8A]	16BLL	4b
.	.	16cJ	.
8BB	4G	8dJ	.
8C	.	8eL	4a
8DJ	8F#	16dL	.
.	.	16cJJ	.
4GG;	4G;	4B;	4g;
8DL	8FL	4d	4a
8EJ	8GJ	.	.
=34	=34	=34	=34
8FL	8A	8dL	4a
8F#J	4c	8e-	.
[4G	.	8d	4g
.	[8B-	8c#J	.
8GL]	8B-L]	4.d	4f
8G#J	8BJ	.	.
8AL	8EL	.	4e
8AAJ	16AL	8c#	.
.	16GJJ	.	.
=35	=35	=35	=35
2D;	2F#;	2A;	2d;
8GG	4B	4d	4d
4G	.	.	.
.	4c#	4e	4a
16F#XLL	.	.	.
16EJJ	.	.	.
=36	=36	=36	=36
8F#L	4.d	8A	4a
8BJ	.	4f#	.
[4E	.	.	4g
.	16cnXLL	8e	.
.	16BJJ	.	.
8EL]	8cL	4.f#	4a
16D#L	[8F#J	.	.
16C#JJ	.	.	.
8D#L	8F#L]	.	4b
8BBJ	16GL	16eLL	.
.	16AJJ	16d#JJ	.
=37	=37	=37	=37
8EL	8G	8e	4cc
8F#	4A	4dnX	.
8G	.	.	4b
8EJ	8G	4g	.
8CL	16eLL	.	2a
.	16dnXJJ	.	.
8AAJ	4c	16f#LL	.
.	.	16eJJ	.
4D	.	4f#	.
.	16BLL	.	.
.	16AJJ	.	.
=38	=38	=38	=38
2GG;	2B;	2d;	2g;
8GL	8BL	8dL	4g
8C#J	8B-J	8e	.
[4D	8AL	8d	8fnXL
.	8GJ	8eJ	8gJ
=39	=39	=39	=39
8DL]	4.F	8fL	4a
8CnX	.	8e	.
8BBnX	.	8d	4g
8BB-J	16ELL	8gJ	.
.	16DJJ	.	.
4.AA	8EL	8c#L	4g
.	16FL	8AJ	.
.	16GJJ	.	.
.	8AL	4d	4f
8GG#	[8BJ	.	.
=40	=40	=40	=40
8AAL	8BL]	4c#	1e;
8BBnX	16AL	.	.
.	16G#JJ	.	.
8CnX	[4A	4c	.
8DJ	.	.	.
2E;	8AL]	2B;	.
.	16G#L	.	.
.	16F#JJ	.	.
.	4G#;	.	.
==	==	==	==
*-	*-	*-	*-
!!!hum2abc: -Q ''
!!!title: @{PC#}. @{OTL@@DE}
!!!YOR1: 371 vierstimmige Choralges&auml;nge von Johann Sebastian Bach, 
!!!YOR2: 4th ed. by Alfred D&ouml;rffel (Leipzig: Breitkopf und H&auml;rtel, 
!!!YOR2: c.1875). 178 pp. Plate "V.A.10".  reprint: J.S. Bach, 371 Four-Part 
!!!YOR4: Chorales (New York: Associated Music Publishers, Inc., c.1940).
!!!SMS: B&H, 4th ed, Alfred D&ouml;rffel, c.1875, plate V.A.10
!!!EED:  Craig Stuart Sapp
!!!EEV:  2009/05/22
